X:1
T:Fonte d'eterno
T:Fonte d'eterno
T:Gio.Girolamo Kapsperger
C:Gio.Girolamo Kapsperger
%%score [ 1 2 ] { ( 3 5 ) | ( 4 6 ) }
L:1/8
Q:1/4=120
M:4/4
K:F
V:1 treble nm="Soprano 1" snm="S 1"
V:2 treble nm="Soprano 2" snm="S 2"
V:3 treble nm="BC" snm="BC"
V:5 treble 
V:4 bass 
V:6 bass 
V:1
 B3 c/d/ c3 B | A3 A A3 A | B3 A G2 AB | c3 B A3 c | dc BA GA BG | G3 G G2 AB | c2 BA GF GA | %7
w: Fon- te d'e- ter- no|gau- di- o, ec-|cel- so Re sou- *|ven- ga- ti, ch'as-|co _ so'in _ piu _ re- *|vi- sce- re, mor- *|tal di _ ve- * nir _|
 F3 F F2 Bc | d2 cB AG AB | G3 G G4 | z2 A2 A3 A | B4 G3 G | AB c/GA/ EF/4G/4A/4G/4 A/4G/4G/4G/4F | %13
w: piac- que- ti, mor- *|tal di _ ve- * nir _|piac- que- ti,|Ma- ri- a,|ma- dre di|gra- * * * * * * * * * * * * * ti-|
 G4 z/ C/D/E/ F/G/A/B/ | c2 BA G^F GA | BA cB A3 G | G4 ABcd | A3 B c3 =B | c3 c B3 A | %19
w: a e _ _ _ _ _ _|_ di _ mi- * se- *|* * ri- * cor- di-|a, tu da- ri- o|ser- pe scam- pa-|ne, e tu mo-|
 A G/AB/A G3 F | F3 d c3 B | B/ A/B/c/ ^F/G/E/F/ D/E/F/G/ A/B/c/d/ | %22
w: ren d'ac- * * * co- gli-|ne, e tu mo-|ren- d'ac- * * * * * * * * * * * * * *|
 G2 (3:2:2ABc B2 (3:2:2cBA x/12 | GA/Bc/B A3 G | G8 | z2 BB B3 c | A3 =B c2 cc | c2 cc dc BA | %28
w: |* * * * * co- gli-|ne.|A te lo- di,|a te glo- ri- a,|ger- me di cas- * sta, _|
 G3 G F3 c | d3 d c3 B | A2 AA A2 Bc | d2 c2 B2 cd | e2 c2 d3 d | c4 z Bcd | %34
w: Ver- gi- ne, al|Pa- dre'al san- to|Spi- ri- to, can- t'in e-|ter- ni,- can- t'in e-|ter- ni se- co-|li, A- * *|
 _e/d/e/d/ e/ (3:2:2d/d/d/c/ B/A/B/A/B/ (3A/A/A/G/ x/12 | A2 A2 z Bcd | _e/cd/ AB<GA/Bc/B | A8 | %38
w: |* men, A- * *|||
 G8 |] %39
w: men.|
V:2
 G3 A/B/ A3 G | ^F3 F F3 F | G3 F E2 FG | A3 G F3 A | BA GF EF GF | E3 E E2 FG | A2 GF ED E2 | %7
w: te d'e- ter- no gau-|di- o, ec- cel-|so Re sou- ven- *|ga- ti, ch'as- co|so'in- _ piu * re- _ vi- *|sce- re, mor- tal *|di ve- _ nir * piac-|
 F3 F F2 GA | B2 AG ^FE F2 | G3 G G4 | z8 | z8 | z8 | z8 | z8 | z8 | z8 | z8 | z8 | z8 | z8 | z8 | %22
w: que- ti, mor- tal *|di ve- _ nir * piac-|que- ti, A|||||||||||||
 z8 x3/4 | z8 | z8 | z2 GG G3 G | F3 F E2 EE | A2 AA BA GF | F3 E F3 A | B3 B A3 G | ^F2 FF z4 | %31
w: |||te lo- di, a|te glo- ri- a, ger|me di cas- sta, * Ver- _|gi- ne, al Pa-|dre'al san- to Spi-|ri- to, can-|
 D2 E^F G2 AB | c2 A2 B3 B | A4 z GAB | c/B/c/B/ c/ (3B/B/B/A/ G/^F/G/F/ G/ (3F/F/F/E/ x/4 | %35
w: t'in e- ter- ni * *|* se- co- li,|A- men, * *||
 ^F2 F2 z GAB | c/AB/ ^FG<EF/GA/G | ^F2 G4 F2 | G8 |] %39
w: * A- men. * *||||
V:3
 [GBd]4 [EGc]4 | [^FA]8 | [DB]4 [EG]4 | [CFA]8 | [DFB]4 [Gc]2 [Ac]2 | [EGc]6 [Fd]2 | %6
 [FAc]2 [DFB]2 [EG]4 | [CA]6 [GB]2 | [DFB]2 [EG]2 [^FA]4 | [DG=B]8 | [^FA]8 | [DB]4 [EG]4 | %12
 [CFA]8 | [EGc]8 | [Ec]8 | [Bd]4 G2 ^F2 | [=B,DG]4 [_B,DG]4 | [Ac]4 [Gc]2 [Fd]2 | %18
 [EGc]4 [GB]2 [Gc]2 | [Ac]2 [FBd]2 G2 E2 | [FAc]2 [DFB]2 [Ac]4 | [DB]4 [^FA]4 | [DF]8 x3/4 | %23
 B2 c2 d4 | [DG=B]8 | [DB]6 [Gc]2 | [Ac]2 [F=B]2 [EGc]4 | [FAc]4 [DFB]4 | [FB]2 [Ec]2 [FAc]4 | %29
 [Fd]4 [Ec]2 [DB]2 | [^FA]4 z4 | [DGB]4 [GB]4 | [G_e]2 [FAc]2 [FBd]4 | [FAc]4 [GB]4 | [Gd]8 x/4 | %35
 [^FA]4 [DB]4 | G4 c2 _e2 | d2 Bc d4 | [DG=B]8 |] %39
V:4
 G,,4 C,4 | D,8 | G,,4 C,4 | F,,6 F,,2 | B,,4 C,2 F,,2 | C,6 B,,2 | A,,2 B,,2 C,4 | F,,6 _E,2 | %8
 B,,2 C,2 D,4 | G,,8 | D,8 | G,,4 C,4 | F,,8 | C,8 | A,,8 | G,,4 [D,A,]4 | G,,4 G,4 | %17
 F,4 _E,2 D,2 | C,4 D,2 E,2 | F,2 B,,2 C,4 | F,,2 B,,2 F,4 | G,4 D,4 | B,,8 x3/4 | %23
 _E,2 C,2 [D,A,]4 | G,,8 | G,6 E,2 | F,2 D,2 C,4 | F,,4 B,,4 | C,4 F,,4 | B,,4 C,2 G,,2 | D,8 | %31
 G,,4 _E,4 | C,2 F,2 B,,4 | F,4 G,4- | G,8 x/4 | D,4 G,4 | C,8 | A,2 G,2 B,2 A,2 | [G,,G,]8 |] %39
V:5
 x8 | x8 | x8 | x8 | x8 | x8 | x8 | x8 | x8 | x8 | x8 | x8 | x8 | x8 | x8 | x8 | x8 | x8 | x8 | %19
 x8 | x8 | x8 | x35/4 | x8 | x8 | x8 | x8 | x8 | x8 | x8 | x8 | x8 | x8 | x8 | x33/4 | x8 | %36
 _E4 G4 | ^F2 D4 F2 | x8 |] %39
V:6
 x8 | x8 | x8 | x8 | x8 | x8 | x8 | x8 | x8 | x8 | x8 | x8 | x8 | x8 | x8 | x8 | x8 | x8 | x8 | %19
 x8 | x8 | x8 | x35/4 | x8 | x8 | x8 | x8 | x8 | x8 | x8 | x8 | x8 | x8 | x8 | x33/4 | x8 | C,8 | %37
 D,8 | x8 |] %39

